vendor/shopware/storefront/Resources/app/storefront/dist/assets/icon/default/tools.svg

<svg xmlns="http://www.w3.org/2000/svg" width="24" height="24" viewBox="0 0 24 24">
  <path fill="#758CA3" fill-rule="evenodd" d="M7,7.64987309 L7,16.3501269 L9.40613847,17.4195218 C9.76726648,17.5800231 10,17.9381446 10,18.3333333 L10,21 C10,21.5522847 9.55228475,22 9,22 C8.44771525,22 8,21.5522847 8,21 L8,18.9832064 L6,18.0943175 L4,18.9832064 L4,21 C4,21.5522847 3.55228475,22 3,22 C2.44771525,22 2,21.5522847 2,21 L2,18.3333333 C2,17.9381446 2.23273352,17.5800231 2.59386153,17.4195218 L5,16.3501269 L5,7.64987309 L2.59386153,6.58047822 C2.23273352,6.41997688 2,6.06185538 2,5.66666667 L2,3 C2,2.44771525 2.44771525,2 3,2 C3.55228475,2 4,2.44771525 4,3 L4,5.01679358 L6,5.90568247 L8,5.01679358 L8,3 C8,2.44771525 8.44771525,2 9,2 C9.55228475,2 10,2.44771525 10,3 L10,5.66666667 C10,6.06185538 9.76726648,6.41997688 9.40613847,6.58047822 L7,7.64987309 Z M18,9 L18,21 C18,21.5522847 17.5522847,22 17,22 C16.4477153,22 16,21.5522847 16,21 L16,9 L13.477033,9 C12.3724635,9 11.477033,8.1045695 11.477033,7 C11.477033,6.74556114 11.5255834,6.4934592 11.6200796,6.25721865 L12.8200796,3.25721865 C13.1238063,2.49790189 13.8592238,2 14.677033,2 L20,2 C21.1045695,2 22,2.8954305 22,4 L22,7 C22,8.1045695 21.1045695,9 20,9 L18,9 Z M13.477033,7 L20,7 L20,4 L14.677033,4 L13.477033,7 Z"/>
</svg>

<svg xmlns="http://www.w3.org/2000/svg" width="24" height="24" viewBox="0 0 24 24"><path fill="#758CA3" fill-rule="evenodd" d="M7 7.6499V16.35l2.4061 1.0694a1 1 0 0 1 .5939.9138V21c0 .5523-.4477 1-1 1s-1-.4477-1-1v-2.0168l-2-.8889-2 .889V21c0 .5523-.4477 1-1 1s-1-.4477-1-1v-2.6667a1 1 0 0 1 .5939-.9138L5 16.3501V7.65L2.5939 6.5805A1 1 0 0 1 2 5.6667V3c0-.5523.4477-1 1-1s1 .4477 1 1v2.0168l2 .8889 2-.889V3c0-.5523.4477-1 1-1s1 .4477 1 1v2.6667a1 1 0 0 1-.5939.9138L7 7.6499zM18 9v12c0 .5523-.4477 1-1 1s-1-.4477-1-1V9h-2.523c-1.1045 0-2-.8954-2-2a2 2 0 0 1 .143-.7428l1.2-3A2 2 0 0 1 14.677 2H20c1.1046 0 2 .8954 2 2v3c0 1.1046-.8954 2-2 2h-2zm-4.523-2H20V4h-5.323l-1.2 3z"/></svg>
